X: 101145
T: Jimmy Doyle's
S: "Johnny O'Leary of Sliabh Luachra" (#107)
Z: B.Black
L: 1/8
M: 12/8
Q: 360
R: slide
K: Amix
fdB BAB g2g f2e|d2B BAB e2e efe|
d/e/fd BAB g2e f/g/fe|d2B BAB A3 A3 :|
faf e2e faf efe|d2B BAB e2e ede|
faf e2e faf efe|d2B BAB A3 A3 :|
